X: 117204
T: CULLEN HOUSE
Q: "Reel."
R: Reel.
%R: reel
B: James Kerr "Merry Melodies" v.1 p.17 s.2 #4
Z: 2017 John Chambers <jc:trillian.mit.edu>
N: Added rest between the strains, to fix the rhythm.
M: C
L: 1/8
K: D
|: B |\
A2AF (AF)dB | A2AF (GE)EB |\
A2AF (AF)dB | AFGE FD D :|\
z |\
vddfd adfd | ddfd eBBe |
ddfd adfd | BdAd FDDf |\
ddfd adfd | ddfd eBBg |\
fdec dBAB | dfeg fd d |]

%%sep 1 1 500
%%sep 1 1 500

